X:340
T:Sporting Paddy
Z: id:dc-reel-317
M:C
L:1/8
K:A Dorian
AG|EAAB GABG|EAAB G2ED|EAAB GABd|efge dBAG|!
EAAB GABG|EAAB G2ED|EAAB GABd|efge d2|]!
ef|gee2 gede|gee2 a2ba|gee2 ged2|efge d2ef|!
gee2 gede|gee2 a2ga|bgab ged2|efge dB|]!

